X:1
T: Johnny with the Queer Thing
R:Reel
Q: 232
K:D
M:4/4
L:1/8
df ed Bc dB|AD ((3FED) FA AB|de fd B2 dB|AB df gf ef|
df ed Bc dB|AD ((3FED) FA A2|de fd B2 dB|AB df e2 d2|
|:fa ag fd df|gf ga be eg|fa af ge dB|AB df e2 d2|
fa ag fd df|gf ga bg eg|fa af ge dB|AB df gf ef:|
df ed Bc dB|AD ((3FED) FA AB|de fd B2 dB|AB df gf ef|
df ed Bc dB|AD ((3FED) FA A2|de fd B2 dB|AB df e2 d2||
